svg/u1f9b6_1f3fc.svg

<svg viewBox="0 0 128 128" xmlns="http://www.w3.org/2000/svg">
  <defs>
    <linearGradient id="a" gradientTransform="matrix(-1 0 0 1 0 0)" gradientUnits="userSpaceOnUse" x1="-63.912" x2="-63.912" y1="13.424" y2="120.54">
      <stop offset=".1277" stop-color="#CCA47A"/>
      <stop offset=".6418" stop-color="#E0BB95"/>
    </linearGradient>
  </defs>
  <path d="M83.59,121.86 C79.85,121.86 76.55,121.22 73.77,119.97 C70.28,118.39 66.18,116.09 62.21,113.87 C54.81,109.73 47.16,105.44 41.95,104.86 C40.1,104.66 37.61,104.59 34.74,104.52 C26.21,104.3 13.31,103.98 9.42,99.09 C3.17,91.23 4.35,84.21 8.72,74.01 C14.26,61.09 14.38,52.73 14.11,39.06 C13.95,30.88 13.42,21.72 13.01,15.48 C12.93,14.2 13.36,12.99 14.23,12.05 C15.11,11.11 16.29,10.6 17.58,10.6 L46.86,10.61 C48.1,10.61 49.26,11.1 50.13,11.98 C51,12.86 51.46,14.03 51.44,15.26 C51.18,29.66 51.33,54.79 55.22,61.38 C60.44,70.22 69.01,79.1 73.96,82.27 C76.3,83.77 78.41,85.82 80.45,87.82 C81.25,88.61 82.06,89.39 82.87,90.13 C86.09,93.1 89.3,95.02 93.95,96.76 C94.37,96.92 94.77,97.07 95.17,97.23 C97.2,98.02 99.11,98.77 101.47,98.97 C101.94,99.01 102.56,99.03 103.4,99.03 C104.15,99.03 105,99.01 105.87,99 C106.76,98.98 107.67,98.97 108.51,98.97 C109.75,98.97 110.61,99.01 111.13,99.09 C112.8,99.34 114.27,100.12 115.57,100.81 C116.9,101.51 118.04,102.12 119.25,102.12 C119.77,102.12 120.27,102 120.71,101.77 C120.82,101.8 121.11,101.9 121.62,102.27 C122.57,102.96 123.07,105.06 122.5,105.94 L122.11,106.55 C121.54,107.44 121.16,108.45 120.99,109.57 C120.77,111 120.12,112.92 118.28,113.96 C117.62,114.33 117.01,114.81 116.49,115.38 C115.91,116 114.88,116.8 113.2,117.07 C112.4,117.2 111.66,117.44 111.01,117.78 C110.24,118.17 109.01,118.69 107.5,118.89 C106.19,119.07 104.93,119.59 103.84,120.41 C102.99,121.05 101.67,121.82 100.17,121.82 C99.94,121.82 99.7,121.8 99.47,121.76 C98.43,121.59 97.83,121.39 97.51,121.25 C96.44,120.79 95.35,120.55 94.27,120.55 C93.72,120.55 93.17,120.61 92.65,120.74 C90.5,121.26 87.21,121.86 83.59,121.86 Z" fill="url(#a)"/>
  <path d="M17.58,12.11 L46.85,12.12 C47.68,12.12 48.47,12.45 49.05,13.04 C49.63,13.63 49.94,14.42 49.93,15.25 C49.61,33.03 50.04,55.59 53.92,62.16 C59.25,71.19 68.05,80.29 73.14,83.55 C75.35,84.96 77.31,86.88 79.4,88.91 C80.19,89.68 81.01,90.48 81.85,91.25 C85.23,94.36 88.58,96.37 93.42,98.18 C93.83,98.33 94.23,98.49 94.62,98.64 C96.66,99.43 98.77,100.25 101.33,100.48 C101.85,100.53 102.5,100.55 103.39,100.55 C104.15,100.55 105.01,100.53 105.89,100.52 C106.77,100.5 107.67,100.49 108.5,100.49 C109.65,100.49 110.45,100.52 110.9,100.59 C112.32,100.8 113.61,101.49 114.86,102.16 C116.3,102.92 117.66,103.65 119.24,103.65 C119.72,103.65 120.19,103.58 120.64,103.44 L120.73,103.5 C121.06,103.76 121.35,104.79 121.21,105.18 L120.84,105.76 C120.15,106.83 119.7,108.04 119.49,109.37 C119.32,110.47 118.85,111.94 117.53,112.68 C116.73,113.13 116,113.7 115.37,114.38 C114.95,114.83 114.19,115.4 112.94,115.61 C111.99,115.76 111.1,116.05 110.3,116.46 C109.76,116.74 108.65,117.23 107.28,117.42 C105.71,117.63 104.2,118.26 102.91,119.24 C102.25,119.74 101.23,120.34 100.15,120.34 C100,120.34 99.84,120.33 99.69,120.3 C98.75,120.15 98.28,119.98 98.08,119.9 C96.82,119.36 95.53,119.08 94.25,119.08 C93.58,119.08 92.92,119.16 92.28,119.31 C90.23,119.79 87.06,120.37 83.59,120.37 C80.06,120.37 76.97,119.78 74.39,118.61 C70.96,117.06 66.89,114.78 62.95,112.57 C55.07,108.16 47.63,103.99 42.12,103.38 C40.21,103.17 37.69,103.1 34.78,103.03 C27.03,102.83 14.05,102.5 10.6,98.16 C6.13,92.55 4.73,87.14 10.1,74.6 C15.76,61.4 15.88,52.91 15.61,39.03 C15.45,30.83 14.92,21.64 14.51,15.38 C14.45,14.52 14.75,13.7 15.33,13.08 C15.92,12.45 16.72,12.11 17.58,12.11 M17.58,9.11 C14.06,9.11 11.28,12.08 11.51,15.59 C11.91,21.61 12.45,30.87 12.61,39.1 C12.88,52.69 12.79,60.71 7.34,73.43 C1.89,86.14 2.59,92.94 8.24,100.03 C13.89,107.13 34.15,105.52 41.78,106.36 C49.41,107.2 63.23,116.85 73.14,121.34 C76.5,122.86 80.18,123.37 83.58,123.37 C87.32,123.37 90.72,122.76 92.96,122.23 C93.38,122.13 93.81,122.08 94.24,122.08 C95.14,122.08 96.04,122.29 96.89,122.65 C97.4,122.87 98.14,123.09 99.21,123.26 C99.53,123.31 99.84,123.34 100.15,123.34 C102.06,123.34 103.68,122.42 104.72,121.63 C105.58,120.97 106.6,120.54 107.67,120.4 C109.42,120.16 110.84,119.56 111.67,119.14 C112.22,118.86 112.81,118.68 113.42,118.58 C115.57,118.23 116.89,117.16 117.57,116.43 C117.99,115.98 118.47,115.6 119,115.3 C121.47,113.91 122.23,111.34 122.46,109.83 C122.59,108.97 122.88,108.13 123.36,107.4 L123.75,106.79 C124.81,105.16 124.03,102.21 122.5,101.09 C121.98,100.71 121.28,100.3 120.66,100.3 C120.46,100.3 120.26,100.34 120.08,100.45 C119.82,100.6 119.55,100.66 119.25,100.66 C117.44,100.66 114.91,98.18 111.36,97.64 C110.67,97.54 109.65,97.5 108.51,97.5 C106.85,97.5 104.92,97.57 103.4,97.57 C102.69,97.57 102.07,97.56 101.6,97.51 C99.01,97.28 96.9,96.29 94.48,95.39 C90.26,93.8 87.17,92.08 83.89,89.06 C80.95,86.35 78.16,83.21 74.77,81.04 C69.88,77.91 61.51,69.1 56.51,60.65 C52.7,54.19 52.71,27.54 52.93,15.32 C52.99,11.92 50.25,9.14 46.85,9.14 L17.58,9.11 Z" fill="#BA8F63"/>
  <path d="M119.572,109.586 Q118.883,108.767 117.861,108.863 Q116.468,108.991 115.242,107.411 Q114.4,106.325 113.412,106.146 Q111.936,105.877 112.204,104.402 Q112.473,102.926 113.948,103.194 Q116.066,103.579 117.612,105.572 Q117.755,105.756 117.841,105.858 Q120.253,105.736 121.868,107.654 Q122.834,108.802 121.686,109.768 Q120.538,110.734 119.572,109.586 Z" fill="#BA8F63"/>
  <path d="M116.305,114.876 Q114.967,112.586 113.383,112.354 Q112.563,112.234 112.228,111.477 Q110.71,108.043 106.4,107.224 Q104.926,106.943 105.206,105.47 Q105.487,103.996 106.96,104.276 Q112.387,105.309 114.635,109.568 Q117.117,110.318 118.895,113.364 Q119.652,114.659 118.356,115.415 Q117.061,116.172 116.305,114.876 Z" fill="#BA8F63"/>
  <path d="M110.85,116.984 Q110.858,116.294 110.028,115.519 Q109.138,114.689 108.229,114.615 Q107.348,114.544 106.984,113.739 Q105.538,110.549 99.429,109.121 Q97.968,108.779 98.309,107.319 Q98.651,105.858 100.111,106.199 Q107.033,107.817 109.337,111.767 Q110.795,112.132 112.075,113.326 Q113.872,115.003 113.85,117.016 Q113.834,118.516 112.334,118.5 Q111.584,118.492 111.213,118.113 Q110.842,117.734 110.85,116.984 Z" fill="#BA8F63"/>
  <path d="M103.681,119.273 Q103.705,118.645 102.983,118.134 Q102.729,117.957 102.222,117.655 Q101.533,117.243 101.132,116.949 Q100.338,116.374 99.904,115.418 Q99.782,115.148 99.69,114.988 Q98.536,113.002 93.238,112.606 Q91.742,112.494 91.854,110.998 Q91.966,109.502 93.462,109.614 Q100.337,110.128 102.29,113.492 Q102.454,113.777 102.636,114.178 Q102.742,114.411 102.908,114.531 Q103.193,114.74 103.76,115.078 Q104.358,115.436 104.716,115.686 Q106.764,117.135 106.679,119.387 Q106.622,120.886 105.123,120.829 Q103.624,120.772 103.681,119.273 Z" fill="#BA8F63"/>
  <path d="M25.206,69.658 Q22.23,73.179 22.827,77.735 Q23.426,82.302 27.191,84.942 Q28.419,85.803 27.558,87.031 Q27.128,87.645 26.605,87.737 Q26.083,87.829 25.469,87.398 Q20.623,84.001 19.853,78.125 Q19.083,72.255 22.914,67.722 Q23.399,67.149 23.927,67.105 Q24.456,67.06 25.028,67.544 Q26.174,68.513 25.206,69.658 Z" fill="#BA8F63"/>
</svg>

<svg viewBox="0 0 128 128" xmlns="http://www.w3.org/2000/svg">
  <linearGradient id="a" gradientTransform="matrix(-1 0 0 1 127.85 0)" gradientUnits="userSpaceOnUse" x1="63.938" x2="63.938" y1="13.424" y2="120.54">
    <stop offset=".1277" stop-color="#CCA47A"/>
    <stop offset=".6418" stop-color="#E0BB95"/>
  </linearGradient>
  <path d="m83.59 121.86c-3.74 0-7.04-0.64-9.82-1.89-3.49-1.58-7.59-3.88-11.56-6.1-7.4-4.14-15.05-8.43-20.26-9.01-1.85-0.2-4.34-0.27-7.21-0.34-8.53-0.22-21.43-0.54-25.32-5.43-6.25-7.86-5.07-14.88-0.7-25.08 5.54-12.92 5.66-21.28 5.39-34.95-0.16-8.18-0.69-17.34-1.1-23.58-0.08-1.28 0.35-2.49 1.22-3.43 0.88-0.94 2.06-1.45 3.35-1.45l29.28 0.01c1.24 0 2.4 0.49 3.27 1.37s1.33 2.05 1.31 3.28c-0.26 14.4-0.11 39.53 3.78 46.12 5.22 8.84 13.79 17.72 18.74 20.89 2.34 1.5 4.45 3.55 6.49 5.55 0.8 0.79 1.61 1.57 2.42 2.31 3.22 2.97 6.43 4.89 11.08 6.63 0.42 0.16 0.82 0.31 1.22 0.47 2.03 0.79 3.94 1.54 6.3 1.74 0.47 0.04 1.09 0.06 1.93 0.06 0.75 0 1.6-0.02 2.47-0.03 0.89-0.02 1.8-0.03 2.64-0.03 1.24 0 2.1 0.04 2.62 0.12 1.67 0.25 3.14 1.03 4.44 1.72 1.33 0.7 2.47 1.31 3.68 1.31 0.52 0 1.02-0.12 1.46-0.35 0.11 0.03 0.4 0.13 0.91 0.5 0.95 0.69 1.45 2.79 0.88 3.67l-0.39 0.61c-0.57 0.89-0.95 1.9-1.12 3.02-0.22 1.43-0.87 3.35-2.71 4.39-0.66 0.37-1.27 0.85-1.79 1.42-0.58 0.62-1.61 1.42-3.29 1.69-0.8 0.13-1.54 0.37-2.19 0.71-0.77 0.39-2 0.91-3.51 1.11-1.31 0.18-2.57 0.7-3.66 1.52-0.85 0.64-2.17 1.41-3.67 1.41-0.23 0-0.47-0.02-0.7-0.06-1.04-0.17-1.64-0.37-1.96-0.51-1.07-0.46-2.16-0.7-3.24-0.7-0.55 0-1.1 0.06-1.62 0.19-2.15 0.52-5.44 1.12-9.06 1.12z" fill="url(#a)"/>
  <path d="m17.58 12.11 29.27 0.01c0.83 0 1.62 0.33 2.2 0.92s0.89 1.38 0.88 2.21c-0.32 17.78 0.11 40.34 3.99 46.91 5.33 9.03 14.13 18.13 19.22 21.39 2.21 1.41 4.17 3.33 6.26 5.36 0.79 0.77 1.61 1.57 2.45 2.34 3.38 3.11 6.73 5.12 11.57 6.93 0.41 0.15 0.81 0.31 1.2 0.46 2.04 0.79 4.15 1.61 6.71 1.84 0.52 0.05 1.17 0.07 2.06 0.07 0.76 0 1.62-0.02 2.5-0.03 0.88-0.02 1.78-0.03 2.61-0.03 1.15 0 1.95 0.03 2.4 0.1 1.42 0.21 2.71 0.9 3.96 1.57 1.44 0.76 2.8 1.49 4.38 1.49 0.48 0 0.95-0.07 1.4-0.21l0.09 0.06c0.33 0.26 0.62 1.29 0.48 1.68l-0.37 0.58c-0.69 1.07-1.14 2.28-1.35 3.61-0.17 1.1-0.64 2.57-1.96 3.31-0.8 0.45-1.53 1.02-2.16 1.7-0.42 0.45-1.18 1.02-2.43 1.23-0.95 0.15-1.84 0.44-2.64 0.85-0.54 0.28-1.65 0.77-3.02 0.96-1.57 0.21-3.08 0.84-4.37 1.82-0.66 0.5-1.68 1.1-2.76 1.1-0.15 0-0.31-0.01-0.46-0.04-0.94-0.15-1.41-0.32-1.61-0.4-1.26-0.54-2.55-0.82-3.83-0.82-0.67 0-1.33 0.08-1.97 0.23-2.05 0.48-5.22 1.06-8.69 1.06-3.53 0-6.62-0.59-9.2-1.76-3.43-1.55-7.5-3.83-11.44-6.04-7.88-4.41-15.32-8.58-20.83-9.19-1.91-0.21-4.43-0.28-7.34-0.35-7.75-0.2-20.73-0.53-24.18-4.87-4.47-5.61-5.87-11.02-0.5-23.56 5.66-13.2 5.78-21.69 5.51-35.57-0.16-8.2-0.69-17.39-1.1-23.65-0.06-0.86 0.24-1.68 0.82-2.3 0.59-0.63 1.39-0.97 2.25-0.97m103.99 90.92m-103.99-93.92c-3.52 0-6.3 2.97-6.07 6.48 0.4 6.02 0.94 15.28 1.1 23.51 0.27 13.59 0.18 21.61-5.27 34.33-5.45 12.71-4.75 19.51 0.9 26.6 5.65 7.1 25.91 5.49 33.54 6.33s21.45 10.49 31.36 14.98c3.36 1.52 7.04 2.03 10.44 2.03 3.74 0 7.14-0.61 9.38-1.14 0.42-0.1 0.85-0.15 1.28-0.15 0.9 0 1.8 0.21 2.65 0.57 0.51 0.22 1.25 0.44 2.32 0.61 0.32 0.05 0.63 0.08 0.94 0.08 1.91 0 3.53-0.92 4.57-1.71 0.86-0.66 1.88-1.09 2.95-1.23 1.75-0.24 3.17-0.84 4-1.26 0.55-0.28 1.14-0.46 1.75-0.56 2.15-0.35 3.47-1.42 4.15-2.15 0.42-0.45 0.9-0.83 1.43-1.13 2.47-1.39 3.23-3.96 3.46-5.47 0.13-0.86 0.42-1.7 0.9-2.43l0.39-0.61c1.06-1.63 0.28-4.58-1.25-5.7-0.52-0.38-1.22-0.79-1.84-0.79-0.2 0-0.4 0.04-0.58 0.15-0.26 0.15-0.53 0.21-0.83 0.21-1.81 0-4.34-2.48-7.89-3.02-0.69-0.1-1.71-0.14-2.85-0.14-1.66 0-3.59 0.07-5.11 0.07-0.71 0-1.33-0.01-1.8-0.06-2.59-0.23-4.7-1.22-7.12-2.12-4.22-1.59-7.31-3.31-10.59-6.33-2.94-2.71-5.73-5.85-9.12-8.02-4.89-3.13-13.26-11.94-18.26-20.39-3.81-6.46-3.8-33.11-3.58-45.33 0.06-3.4-2.68-6.18-6.08-6.18l-29.27-0.03z" fill="#BA8F63"/>
  <path d="m120.72 108.62c-1.01-1.2-2.15-1.33-3-1.25-1.31 0.12-1.29-2.2-4.04-2.7" fill="none" stroke="#BA8F63" stroke-linecap="round" stroke-linejoin="round" stroke-miterlimit="10" stroke-width="3"/>
  <path d="m117.6 114.12c-0.8-1.37-2.43-3.02-4-3.25-1.38-3.12-3.24-4.42-6.92-5.12" fill="none" stroke="#BA8F63" stroke-linecap="round" stroke-linejoin="round" stroke-miterlimit="10" stroke-width="3"/>
  <path d="m112.35 117c0.02-1.85-2.15-3.73-4-3.88-1.31-2.89-5.5-4.74-8.58-5.46" fill="none" stroke="#BA8F63" stroke-linecap="round" stroke-linejoin="round" stroke-miterlimit="10" stroke-width="3"/>
  <path d="m105.18 119.33c0.03-0.79-0.68-1.96-1.33-2.42-0.66-0.46-1.19-0.7-1.83-1.17-0.69-0.5-0.61-0.77-1.03-1.5-1.26-2.17-5.23-2.95-7.64-3.13" fill="none" stroke="#BA8F63" stroke-linecap="round" stroke-linejoin="round" stroke-miterlimit="10" stroke-width="3"/>
  <path d="m24.06 68.69c-2.13 2.52-3.15 5.96-2.72 9.24s2.28 6.34 4.99 8.24" fill="none" stroke="#BA8F63" stroke-linecap="round" stroke-linejoin="round" stroke-miterlimit="10" stroke-width="3"/>
</svg>
